launcher/android/assets/skins/day/svg/mapMultiStartP2.svg

<svg enable-background="new 0 0 258.00 258.00" height="258" viewBox="0 0 258 258" width="258" xmlns="http://www.w3.org/2000/svg" xmlns:xlink="http://www.w3.org/1999/xlink"><linearGradient id="a" gradientTransform="matrix(0 -1 1 0 -.581108 1.581108)" gradientUnits="objectBoundingBox" x1=".5" x2="1.66222" y1="1.08111" y2="1.08111"><stop offset="0" stop-color="#abc4ab"/><stop offset=".771552" stop-color="#d5e1d5"/><stop offset="1" stop-color="#fff"/></linearGradient><linearGradient id="b" gradientUnits="objectBoundingBox" x1="-.0487922" x2="1.04879" y1=".500001" y2=".499999"><stop offset=".00925926" stop-color="#c0c0c0"/><stop offset=".197949" stop-color="#8b8b8b" stop-opacity=".501961"/><stop offset=".421296" stop-color="#575757" stop-opacity="0"/><stop offset=".611111" stop-color="#626262" stop-opacity="0"/><stop offset="1" stop-color="#c0c0c0" stop-opacity=".4"/></linearGradient><linearGradient id="c"><stop offset=".00462963" stop-color="#b24e04"/><stop offset=".660537" stop-color="#d06515"/><stop offset=".99537" stop-color="#ee7c27"/></linearGradient><linearGradient id="d" gradientTransform="matrix(-.999375874701 -.035325076997 .035325076997 -.999375874701 1.970747599367 1.345615271139)" gradientUnits="objectBoundingBox" x1=".997261" x2="2.03921" xlink:href="#c" y1=".655398" y2=".655398"/><linearGradient id="e" gradientUnits="objectBoundingBox" x1="-.0487919" x2="1.04879" y1=".5" y2=".5"><stop offset="0" stop-color="#c0c0c0" stop-opacity="0"/><stop offset=".19505" stop-color="#989898" stop-opacity="0"/><stop offset=".425926" stop-color="#707070" stop-opacity="0"/><stop offset=".787037" stop-color="#6c6c6c" stop-opacity="0"/><stop offset=".986111" stop-color="#b9b9b9" stop-opacity=".6"/></linearGradient><linearGradient id="f" gradientTransform="matrix(-.999375874701 -.035325076997 .035325076997 -.999375874701 1.97074510544 1.345643227076)" gradientUnits="objectBoundingBox" x1=".99726" x2="2.03922" xlink:href="#c" y1=".655412" y2=".655412"/><g stroke-linejoin="bevel"><path d="m44 4h170c22.091 0 40 17.9086 40 39.9999v170.0001c0 22.091-17.909 40-40 40h-170c-22.0914 0-40-17.909-40-40v-170.0001c0-22.0913 17.9086-39.9999 40-39.9999z" fill="url(#a)" stroke="#000" stroke-linecap="square" stroke-width="8"/><path d="m46.482 64.7313 162-.3022v13.2091l-161.6986.2159z" fill="#ffde19" stroke="#000" stroke-width="5"/><path d="m206.524 64.8223 30-18.9652v13.2498l-29.929 18.8383z" fill="#ffde19" stroke="#000" stroke-width="5"/><path d="m85.7737 45.8541 151.7503-1-29.596 20.1226-158.6543-.6223z" fill="#ffde19" stroke="#000" stroke-width="5"/><path d="m204.524 78.8544 29.791-16.8631v47.6667l-29.791 19.696z" fill="#d66919" stroke="#000" stroke-linecap="square" stroke-width="5"/><path d="m56.8987 78.3549h146.875v51.25h-146.875z" fill="#d66919" stroke="#000" stroke-linecap="square" stroke-width="5"/><path d="m108.728 156.014 90.333-50.5v47.667l-90.333 52.833z" fill="#d66919" stroke="#000" stroke-linecap="square" stroke-width="5"/><path d="m28.7277 153.181h79.3333l.042 52.958-62.2503.25-10.75-3-6.25-9z" fill="#d66919" stroke="#000" stroke-linecap="square" stroke-width="5"/><path d="m97.1009 129.256c33.0001-15.735 65.8591-15.685 73.3911.112s-13.114 41.359-46.114 57.094c-33.0003 15.736-65.8585 15.685-73.3909-.112-7.5323-15.796 13.1139-41.359 46.1138-57.094z" fill="url(#b)" stroke-linecap="square" stroke-width=".2"/></g><path d="m22.6444 140.264 89.5836-.292v12.75l-89.417.209z" fill="#ffde19" stroke="#000" stroke-width="5"/><path d="m21.9777 140.431 98.2153-52.7289 80.785-.4796-92.222 53.2505z" fill="#ffde19" stroke="#000" stroke-width="5"/><path d="m74.6487 58.7643 125.4163-.1183 13.917-9.9165-123.2499 1.2499z" fill="url(#d)" stroke-linecap="square" stroke-linejoin="bevel" stroke-width=".2"/><path d="m113.311 139.097 90.375-53.3748v15.4998l-90.375 51.542z" fill="#ffde19" stroke="#000" stroke-linecap="square" stroke-linejoin="bevel" stroke-width="5"/><path d="m119.256 119.244c32.999-15.735 65.858-15.685 73.39.112 7.533 15.797-13.113 41.359-46.113 57.094-33.001 15.736-65.8589 15.685-73.3913-.112-7.5323-15.797 13.1139-41.359 46.1143-57.094z" fill="url(#e)" stroke-linecap="square" stroke-linejoin="bevel" stroke-width=".2"/><path d="m48.2693 152.722 46.5.25-16.5 18h-43.75z" fill="#ffde19" stroke="#000" stroke-linejoin="bevel" stroke-width="5"/><path d="m70.4403 127.938 37.0837-.084 56.333-31.333-38.667.3334z" fill="url(#f)" stroke-linecap="square" stroke-linejoin="bevel" stroke-width=".2"/></svg>

﻿<?xml version="1.0" encoding="utf-8"?>
<!DOCTYPE svg PUBLIC "-//W3C//DTD SVG 1.1//EN" "http://www.w3.org/Graphics/SVG/1.1/DTD/svg11.dtd">
<svg xmlns="http://www.w3.org/2000/svg" xmlns:xlink="http://www.w3.org/1999/xlink" version="1.1" baseProfile="full" width="258" height="258" viewBox="0 0 258.00 258.00" enable-background="new 0 0 258.00 258.00" xml:space="preserve">
	<linearGradient id="SVGID_Fill1_" gradientUnits="objectBoundingBox" x1="0.5" y1="1.08111" x2="1.66222" y2="1.08111" gradientTransform="rotate(-90.000000 0.500000 1.081108)">
		<stop offset="0" stop-color="#ABC4AB" stop-opacity="1"/>
		<stop offset="0.771552" stop-color="#D5E1D5" stop-opacity="1"/>
		<stop offset="1" stop-color="#FFFFFF" stop-opacity="1"/>
	</linearGradient>
	<path fill="url(#SVGID_Fill1_)" stroke-width="8" stroke-linecap="square" stroke-linejoin="bevel" stroke="#000000" stroke-opacity="1" d="M 44,4L 214,4C 236.091,4 254,21.9086 254,43.9999L 254,214C 254,236.091 236.091,254 214,254L 44,254C 21.9086,254 4,236.091 4,214L 4,43.9999C 4,21.9086 21.9086,4 44,4 Z "/>
	<g>
		<path fill="#FFDE19" fill-opacity="1" stroke-width="5" stroke-linejoin="bevel" stroke="#000000" stroke-opacity="1" d="M 46.482,64.7313L 208.482,64.4291L 208.482,77.6382L 46.7834,77.8541L 46.482,64.7313 Z "/>
		<path fill="#FFDE19" fill-opacity="1" stroke-width="5" stroke-linejoin="bevel" stroke="#000000" stroke-opacity="1" d="M 206.524,64.8223L 236.524,45.8571L 236.524,59.1069L 206.595,77.9452L 206.524,64.8223 Z "/>
		<path fill="#FFDE19" fill-opacity="1" stroke-width="5" stroke-linejoin="bevel" stroke="#000000" stroke-opacity="1" d="M 85.7737,45.8541L 237.524,44.8541L 207.928,64.9767L 49.2737,64.3544L 85.7737,45.8541 Z "/>
		<path fill="#D66919" fill-opacity="1" stroke-width="5" stroke-linecap="square" stroke-linejoin="bevel" stroke="#000000" stroke-opacity="1" d="M 204.524,78.8544L 234.315,61.9913L 234.315,109.658L 204.524,129.354L 204.524,78.8544 Z "/>
		<rect x="56.8987" y="78.3549" fill="#D66919" fill-opacity="1" stroke-width="5" stroke-linecap="square" stroke-linejoin="bevel" stroke="#000000" stroke-opacity="1" width="146.875" height="51.25"/>
		<path fill="#D66919" fill-opacity="1" stroke-width="5" stroke-linecap="square" stroke-linejoin="bevel" stroke="#000000" stroke-opacity="1" d="M 108.728,156.014L 199.061,105.514L 199.061,153.181L 108.728,206.014L 108.728,156.014 Z "/>
		<path fill="#D66919" fill-opacity="1" stroke-width="5" stroke-linecap="square" stroke-linejoin="bevel" stroke="#000000" stroke-opacity="1" d="M 28.7277,153.181L 108.061,153.181L 108.103,206.139L 45.8527,206.389L 35.1027,203.389L 28.8527,194.389L 28.7277,153.181 Z "/>
		<linearGradient id="SVGID_Fill2_" gradientUnits="objectBoundingBox" x1="-0.0487922" y1="0.500001" x2="1.04879" y2="0.499999">
			<stop offset="0.00925926" stop-color="#C0C0C0" stop-opacity="1"/>
			<stop offset="0.197949" stop-color="#8B8B8B" stop-opacity="0.501961"/>
			<stop offset="0.421296" stop-color="#575757" stop-opacity="0"/>
			<stop offset="0.611111" stop-color="#626262" stop-opacity="0"/>
			<stop offset="1" stop-color="#C0C0C0" stop-opacity="0.4"/>
		</linearGradient>
		<path fill="url(#SVGID_Fill2_)" stroke-width="0.2" stroke-linecap="square" stroke-linejoin="bevel" d="M 97.1009,129.256C 130.101,113.521 162.96,113.571 170.492,129.368C 178.024,145.165 157.378,170.727 124.378,186.462C 91.3777,202.198 58.5195,202.147 50.9871,186.35C 43.4548,170.554 64.101,144.991 97.1009,129.256 Z "/>
		<path fill="#FFDE19" fill-opacity="1" stroke-width="5" stroke-linejoin="miter" stroke="#000000" stroke-opacity="1" d="M 22.6444,140.264L 112.228,139.972L 112.228,152.722L 22.811,152.931L 22.6444,140.264 Z "/>
		<path fill="#FFDE19" fill-opacity="1" stroke-width="5" stroke-linejoin="miter" stroke="#000000" stroke-opacity="1" d="M 21.9777,140.431L 120.193,87.7021L 200.978,87.2225L 108.756,140.473L 21.9777,140.431 Z "/>
		<linearGradient id="SVGID_Fill3_" gradientUnits="objectBoundingBox" x1="0.997261" y1="0.655398" x2="2.03921" y2="0.655398" gradientTransform="rotate(182.024399 0.997261 0.655398)">
			<stop offset="0.00462963" stop-color="#B24E04" stop-opacity="1"/>
			<stop offset="0.660537" stop-color="#D06515" stop-opacity="1"/>
			<stop offset="0.99537" stop-color="#EE7C27" stop-opacity="1"/>
		</linearGradient>
		<path fill="url(#SVGID_Fill3_)" stroke-width="0.2" stroke-linecap="square" stroke-linejoin="bevel" d="M 74.6487,58.7643L 200.065,58.646L 213.982,48.7295L 90.7321,49.9794L 74.6487,58.7643 Z "/>
		<path fill="#FFDE19" fill-opacity="1" stroke-width="5" stroke-linecap="square" stroke-linejoin="bevel" stroke="#000000" stroke-opacity="1" d="M 113.311,139.097L 203.686,85.7222L 203.686,101.222L 113.311,152.764L 113.311,139.097 Z "/>
		<linearGradient id="SVGID_Fill4_" gradientUnits="objectBoundingBox" x1="-0.0487919" y1="0.5" x2="1.04879" y2="0.5">
			<stop offset="0" stop-color="#C0C0C0" stop-opacity="0"/>
			<stop offset="0.19505" stop-color="#989898" stop-opacity="0"/>
			<stop offset="0.425926" stop-color="#707070" stop-opacity="0"/>
			<stop offset="0.787037" stop-color="#6C6C6C" stop-opacity="0"/>
			<stop offset="0.986111" stop-color="#B9B9B9" stop-opacity="0.6"/>
		</linearGradient>
		<path fill="url(#SVGID_Fill4_)" stroke-width="0.2" stroke-linecap="square" stroke-linejoin="bevel" d="M 119.256,119.244C 152.255,103.509 185.114,103.559 192.646,119.356C 200.179,135.153 179.533,160.715 146.533,176.45C 113.532,192.186 80.6741,192.135 73.1417,176.338C 65.6094,160.541 86.2556,134.979 119.256,119.244 Z "/>
		<path fill="#FFDE19" fill-opacity="1" stroke-width="5" stroke-linejoin="bevel" stroke="#000000" stroke-opacity="1" d="M 48.2693,152.722L 94.7693,152.972L 78.2693,170.972L 34.5193,170.972L 48.2693,152.722 Z "/>
		<linearGradient id="SVGID_Fill5_" gradientUnits="objectBoundingBox" x1="0.99726" y1="0.655412" x2="2.03922" y2="0.655412" gradientTransform="rotate(182.024399 0.997260 0.655412)">
			<stop offset="0.00462963" stop-color="#B24E04" stop-opacity="1"/>
			<stop offset="0.660537" stop-color="#D06515" stop-opacity="1"/>
			<stop offset="0.99537" stop-color="#EE7C27" stop-opacity="1"/>
		</linearGradient>
		<path fill="url(#SVGID_Fill5_)" stroke-width="0.2" stroke-linecap="square" stroke-linejoin="bevel" d="M 70.4403,127.938L 107.524,127.854L 163.857,96.521L 125.19,96.8544L 70.4403,127.938 Z "/>
	</g>
</svg>
